src/assets/img/svg_sources/icon_linkedin.svg

<svg width="30" height="30" viewBox="0 0 30 30" fill="none" xmlns="http://www.w3.org/2000/svg">
<rect width="30" height="30" fill="white"/>
<path fill-rule="evenodd" clip-rule="evenodd" d="M30 15C30 6.71573 23.2843 0 15 0C6.71573 0 0 6.71573 0 15C0 23.2843 6.71573 30 15 30C23.2843 30 30 23.2843 30 15ZM12.1111 8.55564C12.1111 9.41476 11.4146 10.1112 10.5555 10.1112C9.69644 10.1112 9 9.41476 9 8.55564C9 7.69655 9.69644 7.00013 10.5555 7.00013C11.4147 7.00013 12.1111 7.69655 12.1111 8.55564ZM12.1111 11.6666H9V20.9998H12.1111V11.6666ZM16.5468 11.9429H13.6666V20.9998H16.5468V16.2455C16.5468 14.9719 17.1747 14.2138 18.3767 14.2138C19.4811 14.2138 20.0116 14.9416 20.0116 16.2455V20.9998H23V15.2651C23 12.8392 21.5275 11.6666 19.4702 11.6666C17.4129 11.6666 16.5467 13.1626 16.5467 13.1626V11.9429H16.5468Z" fill="#929191"/>
</svg>

<svg width="30" height="30" viewBox="0 0 30 30" fill="none" xmlns="http://www.w3.org/2000/svg"><path fill="#fff" d="M0 0h30v30H0z"/><path fill-rule="evenodd" clip-rule="evenodd" d="M30 15c0-8.284-6.716-15-15-15C6.716 0 0 6.716 0 15c0 8.284 6.716 15 15 15 8.284 0 15-6.716 15-15zM12.111 8.556a1.556 1.556 0 1 1-3.111 0 1.556 1.556 0 0 1 3.111 0zm0 3.11H9V21h3.111v-9.333zm4.436.277h-2.88V21h2.88v-4.755c0-1.273.628-2.031 1.83-2.031 1.104 0 1.635.728 1.635 2.031V21H23v-5.735c0-2.426-1.473-3.598-3.53-3.598-2.057 0-2.923 1.496-2.923 1.496v-1.22z" fill="#929191"/></svg>
